src/icons/print.svg

<svg xmlns="http://www.w3.org/2000/svg" width="24" height="24" fill="none"><path fill="currentColor" d="M19 9h-2v1h2zM8 14h8v2H8zm0 3h8v2H8z"/><path fill="currentColor" fill-rule="evenodd" d="M5 2h14v4h4v13h-4v3H5v-3H1V6h4zM3 8v9h2v-6h14v6h2V8zm14 12H7v-7h10zm0-14V4H7v2z" clip-rule="evenodd"/></svg>

<svg width="24" height="24" viewBox="0 0 24 24" fill="none" xmlns="http://www.w3.org/2000/svg">
<path d="M19 9H17V10H19V9Z" fill="black"/>
<path d="M8 14H16V16H8V14Z" fill="black"/>
<path d="M8 17H16V19H8V17Z" fill="black"/>
<path fill-rule="evenodd" clip-rule="evenodd" d="M5 2H19V6H23V19H19V22H5V19H1V6H5V2ZM3 8V17H5V11H19V17H21V8H3ZM17 20H7V13H17V20ZM17 6V4H7V6H17Z" fill="black"/>
</svg>
